X:1
T:Valse Sentimentale Op. 51 n°6 
T:Violoncelle
T:Tchaikovsky 
L:1/8
Q:1/4=76
M:3/4
K:G
V:1 tenor nm="Violoncelle" snm="Vlc"
V:1
"^\n" z2!p!"_con espressione e dolcezza" (uG,3 F,) | ((vE,G,!2!^A,!3!B,) !4!G2- | %2
 G)(FE!4!D!2!C>!tenuto!!1!B,) |!>(! (!3!B,4 !1!A,2-!>)! | A,2)"^II" (!4!C3 !2!=F,) | (=F,4 E,2- | %6
 E,2)"^II" (!3!B,3"^1/2pos" !2!E,) | (!2!E,4 !1!^D,2- | ^D,2) !4!G,3 !3!F, | %9
!<(! (E,G,!2!^A,!<)!B, G2- | G)(FE!4!D!2!C>!tenuto!!1!B,) |!>(! (!3!B,4 A,2-!>)! | %12
 A,2)"_Espressivo""^X" (!2!E3 !1!D) | (!2!A,4"^X" G,2) | z2 (u!2!E3 !1!D) | (!4!B,4 !2!A,2- | %16
 A,2) (!2!E3"^X"!<(! !1!D) |"^X" !2!A,4"^X" !1!G,2 | z2 (u!2!E3"^X" !1!D) | (!4!B,4 !2!A,2-!<)! | %20
 A,2)!>(! (!4!G,3 F,)!>)! |!p! (E,G, !2!^A,B, G2- | G)(FEDC>!tenuto!B,) | (!3!B,4 A,2- | %24
 A,2) (.!4!C3 =F,) | (=F,4 E,2- | E,2) (!3!B,2 E,2) |"^1/2pos""^II"!<(! (!2!E,4"^I" !1!^D,2- | %28
 D,2) (!4!G,3"^II" !3!F,)!<)! |!f!"^II" (E,G,!1!^A,!2!B, !3!B2- | %30
 B)(!4!G!3!F"^II"!1!E!4!D>!tenuto!!2!C) | (!3!B,4 A,2- | A,2) (C3 =F,) | (=F,4 E,2- | %34
 E,2) (!3!B,3"^II" !1!^D,) |"^II"!>(! (!1!^D,4 !2!E,2- | E,2)!>)!!mf! !tenuto!E2 !tenuto!G2 | %37
"_cresc." (!4!F3 !2!E"^X"!1!D!2!E) | (!4!F3 !2!E"^X"!1!D!2!E) | (F3 E D2- | %40
 D2)"^I" (!tenuto!!3!E2 !tenuto!!1!B,2) | (!2!C3 !1!B,!0!A,!1!B,) | (C3 B,A,B,) | %43
!>(! (C2 B, A,2)!>)! | z2 (!tenuto!uE2 !tenuto!G2) | (!4!F3 !2!E!1!DE) | (F3 EDE) | F3 E D2 | %48
 D2 (!1!E2 !3!B,2) | (!4!C3 !3!B,!1!A,!3!B,) | (!4!C3 !3!B,!1!A,!3!B,) | ((!4!C3 !3!B,) !2!A,2- | %52
 A,2)"^rit"!>(! (!fermata!G,3 F,)!>)! |!p! (E,G,^A,B, G2- | G)(F ED C>B,) | (B,4 A,2- | %56
 A,2) C3 =F, | (=F,4 E,2- | E,2) (B,3 E,) | (E,4 ^D,2- | ^D,2)!<(! (!2!G,3 !1!F,)!<)! | %61
[K:bass]!f! (!1!E,,/!1!B,,/!2!G,/!4!E/[K:tenor] !3!B4-) | %62
 B/(A/G/F/ E/D/C/B,/ A,/G,/F,/E,/[K:bass]D,/C,/) |"_poco ritenuto" (B,,4 A,,2- | A,,2) (G,3 F,) | %65
"^III" (A,,4 !0!G,,2- | G,,2) !2!G,,3- !1!G,, |"^IV"!>(! (!3!F,,4 !1!E,,2- | E,,6)!>)! |] %69

